src/lib/packages/icons/src/assets/line/file-text.svg

<svg xmlns="http://www.w3.org/2000/svg" width="24" height="24" fill="none"><path fill="currentColor" d="m20.53 8.47-6-6a.749.749 0 0 0-.53-.22H8C5.582 2.25 4.25 3.582 4.25 6v12c0 2.418 1.332 3.75 3.75 3.75h9c2.418 0 3.75-1.332 3.75-3.75V9a.747.747 0 0 0-.22-.53Zm-5.78-3.659 3.439 3.439H17c-1.577 0-2.25-.673-2.25-2.25V4.811ZM17 20.25H8c-1.577 0-2.25-.673-2.25-2.25V6c0-1.577.673-2.25 2.25-2.25h5.25V6c0 2.418 1.332 3.75 3.75 3.75h2.25V18c0 1.577-.673 2.25-2.25 2.25ZM16.75 12a.75.75 0 0 1-.75.75H9a.75.75 0 0 1 0-1.5h7a.75.75 0 0 1 .75.75Zm-3 4a.75.75 0 0 1-.75.75H9a.75.75 0 0 1 0-1.5h4a.75.75 0 0 1 .75.75Z"/></svg>

<svg width="24" height="24" viewBox="0 0 24 24" fill="none" xmlns="http://www.w3.org/2000/svg">
<path d="M20.53 8.47L14.53 2.47C14.389 2.329 14.199 2.25 14 2.25H8C5.582 2.25 4.25 3.582 4.25 6V18C4.25 20.418 5.582 21.75 8 21.75H17C19.418 21.75 20.75 20.418 20.75 18V9C20.75 8.801 20.671 8.61 20.53 8.47ZM14.75 4.811L18.189 8.25H17C15.423 8.25 14.75 7.577 14.75 6V4.811ZM17 20.25H8C6.423 20.25 5.75 19.577 5.75 18V6C5.75 4.423 6.423 3.75 8 3.75H13.25V6C13.25 8.418 14.582 9.75 17 9.75H19.25V18C19.25 19.577 18.577 20.25 17 20.25ZM16.75 12C16.75 12.414 16.414 12.75 16 12.75H9C8.586 12.75 8.25 12.414 8.25 12C8.25 11.586 8.586 11.25 9 11.25H16C16.414 11.25 16.75 11.586 16.75 12ZM13.75 16C13.75 16.414 13.414 16.75 13 16.75H9C8.586 16.75 8.25 16.414 8.25 16C8.25 15.586 8.586 15.25 9 15.25H13C13.414 15.25 13.75 15.586 13.75 16Z" fill="currentColor"/>
</svg>
